!!!OTL: An die Freude.
!!!OTL-incipit:KOMM FREUDE SEI GESEGNET
!!!COM: Dan. Gottlob Tuerk
!!!ARE: Europa, Mitteleuropa, Deutschland
!!!SCT: F0326
!!!TXL: @@DE
!!!YEM: Copyright 1995, estate of Helmut Schaffrath.
**kern	**text
*ICvox	*
*Ivox	*
*clefG2	*
*M4/4	*
*met(c)	*
*k[b-e-]	*
*B-:	*
!LO:TX:a:t=Heiter.	!
!LO:TX:a:t=P:only the highest voice encoded:problem	!
{4b-/	1._Komm,
=1	=1
4.ff	Freude,
8dd	.
4ee-	ſei
4cc	ge-
=2	=2
(4.dd	-ſeg-
8cc)	.
4b-}	-net,
{4dd	o
=3	=3
4cc	komm
(8ddL	in
8b-J)	.
4a	un-
4g	-ſre
=4	=4
2f	Reih'n!
4r}	.
{4f	Wer
=5	=5
4.cc/	dei-
8ee-	-nem
4.dd	Blick
8ff	be-
=6	=6
(4ff/	-geg-
4ee-/)	.
4cc/}	-net,
{8dd/L	der,
8b-J	.
=7	=7
4g	Himmli-
(8ee-/L	.
8ccJ)	.
4b-/	-ſche,
4a	ſei
=8	=8
(>8b-/L	dein,
8cc	.
8dd	.
8ee-J	.
4ff/)}	.
{4f	der,
=9	=9
4g	Himmli-
8ee-/L	.
8ccJ	.
4b-/	-ſche,
4a	ſei
=10	=10
2b-/	dein.
4r}	.
==	==
!!!AGN: Jugend - Lied, Belehrung, Freude
!!!ONB: ESAC (Essen Associative Code) Database: FINK
!!!AMT: simple quadruple
!!!AIN: vox
!!!EED: Helmut Schaffrath
!!!EEV: 1.0
!!!RDF**kern: > = above
!!!GTL: Jugendlieder
!!Text: Joh. Gebhard. Ehrenreich Maaß
!!!source: Musikalischer Hausschatz der Deutschen. Eine Sammlung von über 1000 Liedern und Gesängen mit Singstimmen und Klavierbegleitung. Leipzig, Litterarisches Verlags-Haus.
!!!page: 194
!!!URL-scan: https://www.digitale-sammlungen.de/en/view/bsb11144622?page=192,193
!!!ENC: Anna Maria Matuszewska
!!!EEV: 2024/07/30
*-	*-